X:595
T:Ae Fond Kiss
S:Amalgam of many renderings
Z:Nigel Gatherer
L:1/8
M:3/4
K:G
B2 B | d2 e | G2 D | E G2  | 
e2 e | g2 e | d2 A | B d2  |
c2 e | g2 G | G2 D | E G2  |
B2 A | B e2 | d2 B | A2 Bc | B2 z |]
<end>
<start>
